app/img/azamat/profile/icon3.svg

<svg width="30" height="30" viewBox="0 0 30 30" fill="none" xmlns="http://www.w3.org/2000/svg">
<path d="M28.3333 21.5595V25.5595C28.3348 25.9308 28.2587 26.2984 28.11 26.6386C27.9612 26.9788 27.743 27.2843 27.4694 27.5353C27.1958 27.7863 26.8727 27.9775 26.521 28.0964C26.1692 28.2154 25.7964 28.2596 25.4266 28.2261C21.3237 27.7803 17.3826 26.3783 13.92 24.1328C10.6984 22.0857 7.96707 19.3544 5.91995 16.1328C3.66659 12.6544 2.26428 8.69414 1.82662 4.57281C1.7933 4.2041 1.83712 3.83249 1.95529 3.48164C2.07345 3.1308 2.26338 2.8084 2.51297 2.53497C2.76257 2.26155 3.06636 2.04309 3.40501 1.89351C3.74365 1.74392 4.10974 1.66649 4.47995 1.66614H8.47995C9.12703 1.65978 9.75434 1.88892 10.245 2.31086C10.7356 2.73279 11.0561 3.31874 11.1466 3.95948C11.3154 5.23957 11.6286 6.49645 12.08 7.70615C12.2593 8.18338 12.2982 8.70203 12.1918 9.20065C12.0855 9.69927 11.8384 10.157 11.48 10.5195L9.78662 12.2128C11.6847 15.5509 14.4486 18.3147 17.7866 20.2128L19.48 18.5195C19.8425 18.161 20.3002 17.9139 20.7988 17.8076C21.2974 17.7013 21.8161 17.7401 22.2933 17.9195C23.503 18.3709 24.7599 18.684 26.04 18.8528C26.6876 18.9442 27.2792 19.2704 27.702 19.7695C28.1248 20.2685 28.3495 20.9056 28.3333 21.5595Z" stroke="#25B072" stroke-width="2" stroke-linecap="round" stroke-linejoin="round"/>
</svg>

<svg width="30" height="30" fill="none" xmlns="http://www.w3.org/2000/svg"><path d="M28.333 21.56v4a2.668 2.668 0 0 1-2.906 2.666 26.386 26.386 0 0 1-11.507-4.093 26 26 0 0 1-8-8 26.387 26.387 0 0 1-4.093-11.56A2.667 2.667 0 0 1 4.48 1.666h4a2.667 2.667 0 0 1 2.667 2.293c.168 1.28.482 2.537.933 3.747a2.667 2.667 0 0 1-.6 2.814l-1.693 1.693a21.334 21.334 0 0 0 8 8l1.693-1.694a2.666 2.666 0 0 1 2.813-.6c1.21.452 2.467.765 3.747.934a2.667 2.667 0 0 1 2.293 2.706Z" stroke="#25B072" stroke-width="2" stroke-linecap="round" stroke-linejoin="round"/></svg>
